X:1
T:Title
%%score { ( 1 4 ) | ( 2 3 ) }
L:1/8
M:2/4
K:Eb
V:1 treble nm="Grand Piano"
V:4 treble 
V:2 bass 
V:3 bass 
V:1
 z4 | z2 z[Q:1/4=70] [GB] | [GB]2 [GB]2 | [GB]G [EG]e | [GB][FA]/G/ [FA][B,F] | [G,E]3 [GB] | %6
 [GB]2 [GB]2 | [GB]G Ge | dc/B/ c[C=A] | B3 A | AB [Bd]B | eB BB | AG/F/ G[EG] | [DF]3 E | %14
 E>F G[EA] |[M:9/16] [EB][EB]/-[EB]/[Ec]-[Ec]/[Ec] |[M:2/4] z2 D2 |[M:3/8] E3 |] %18
V:2
 z4 | z2 z E, | E,2 E,2 | z E z[K:treble] G | z[K:bass] B, z2 | E,3 [E,E] | [E,E]2 [E,E]2 | %7
 E[B,E] E[K:treble]G | [F,B,F][K:bass]E/D/ [F,E][A,,F,] | [F,D]3[K:treble] [B,F] | FA z A | %11
 [B,G][B,G] [B,G][B,G] | FE/D/ E[K:bass]B, | B,,3 [G,B,] | B,4 | %15
[M:9/16] [B,,G,][B,,G,]/-[B,,G,]/[A,,F,]-[A,,F,]/[A,,F,] |[M:2/4] B,,2 z z/ A,/ |[M:3/8] [E,G,]3 |] %18
V:3
 x4 | x4 | x4 | E,2 E,2[K:treble] | .B,>[K:bass]E B,,B,, | x4 | x4 | E,2 [E,B,]2[K:treble] | %8
 z[K:bass] F, z2 | x3[K:treble] x | B,2 B,2 | x4 | B,4[K:bass] | x4 | G,>[F,D] [E,E][C,A,] | %15
[M:9/16] x9/2 |[M:2/4] z2 B,,2 |[M:3/8] x3 |] %18
V:4
 x4 | x4 | x4 | x4 | x4 | x4 | x4 | x4 | x4 | x4 | x4 | x4 | x4 | x4 | x4 |[M:9/16] x9/2 | %16
[M:2/4] [G,B,E]2 [B,G]>F |[M:3/8] x3 |] %18

